Surfn-Breeze-Dark/16x16/mimetypes/text-x-install.svg

<svg width="16" xmlns="http://www.w3.org/2000/svg" height="16" viewBox="0 0 16 16">
 <path fill="#04896a" d="m2 2v12h12v-12zm1 3h10v8h-10zm3 1v3h-1v.016l2.984 2.984h.031l2.984-2.984v-.016h-1v-3zm1 1h2v2h.6l-1.6 1.602-1.6-1.602h.6z"/>
</svg>

<?xml version="1.0" encoding="UTF-8" standalone="no"?>
<svg xmlns="http://www.w3.org/2000/svg" width="16" height="16" version="1.1" viewBox="0 0 16 16">
 <g transform="translate(0,-1036.3622)">
  <path style="opacity:1;fill:#04896a;fill-opacity:1" d="M 2 2 L 2 5 L 2 14 L 3 14 L 14 14 L 14 13 L 14 5 L 14 2 L 2 2 z M 3 5 L 13 5 L 13 13 L 3 13 L 3 5 z M 6 6 L 6 7 L 6 9 L 5 9 L 5 9.015625 L 7.984375 12 L 8 12 L 8.015625 12 L 11 9.015625 L 11 9 L 10 9 L 10 7 L 10 6 L 6 6 z M 7 7 L 9 7 L 9 9 L 9.5996094 9 L 8 10.601562 L 6.4003906 9 L 7 9 L 7 7 z" transform="translate(0,1036.3622)"/>
 </g>
</svg>
